X: 32644
T: Plevin
R: jig
M: 6/8
K: Gmixolydian
B2c Bdf|e2d ecd|BGA Bgf|e2d deg|F2G FAc|cde dcf|e2d ecd|BGg g3|
B2c Bdf|e2d ecd|BGA Bgf|e2d deg|a2g fed|cde dcf|e2d ecd|BGg g3|
M:9/8
|:FGA BAG dBG|FGA BAG dBG|ceG edc fdc|gec fdB cB/A/G|
FGA BAG dBG|FGA BAG dBG|ac gc fc e2c|cec d3 z3:|

